ATB_project/img/region/mapr/map3.svg

<svg width="424" height="280" viewBox="0 0 424 280" fill="none" xmlns="http://www.w3.org/2000/svg"><g filter="url(#filter0_d_1233_809)"><path d="M235.803 71.151v5.599l.259.663-6.814 4.79-20.51 10.407v-9.477c0-.335-.115-.664-.328-.918l-7.465-9.026a1.353 1.353 0 00-.496-.387l-9.564-4.49-2.455-3.96 10.042-3.278h20.406c.254 0 .507-.07.732-.196l4.894-2.886 1.816 2.886h12.745s-.311 3.578-.622 4.825c-.311 1.247-2.64 5.448-2.64 5.448zm-78.248 133.103c.288 1.155 4.888 11.555 8.993 20.726l-.542.872s-9.95.623-11.812 0c-1.867-.624-5.13 0-5.13 0l-2.024-5.605s-6.836-1.085-7.614-1.864c-.779-.779-10.884 0-10.884 0h-9.327s-9.638-1.402-10.105-1.558c-.467-.156-7.615-2.643-7.615-2.643l-4.82-1.715H87.66l5.13-5.448-.155-4.046-20.522-9.494s-2.017-6.072-2.173-6.533c-.156-.468-2.49-6.228-2.49-6.228l-1.551-11.832 3.418-6.221 5.286-6.851 1.551-5.293-8.082.312-11.033-4.669-8.705-1.553-3.89-9.182 13.212-12.923 10.572-6.533v-12.449l2.646-8.565s.772-13.852.617-14.47c-.15-.623-4.97-6.539-6.215-8.253-1.245-1.708-7.62-5.754-7.62-5.754l-10.878-8.41s-11.973-2.487-12.434-2.643c-.467-.156-7.465-3.734-7.465-3.734L7.913 35.506l4.041-9.338-2.017-12.45-5.782-5.713 53.5 3.728c.318.023.623-.058.883-.23L75.906.218h12.538l3.707 10.556c.178.52.64.889 1.187.952l25.716 3.065 11.252 8.813V38.38l6.687 20.778v22.578l7.961 4.329-1.81 8.345-4.912 7.896-6.704 2.107h-4.329v6.723l4.387 3.55-.277 4.75h8.555l6.808 4.548 6.658-5.333 6.018 8.034c.155.335.305.767.38 1.085a1.506 1.506 0 00-.726 1.12c-.127 1.033-.208 1.668 7.373 4.992v2.332l-3.73 2.984h-7.131l-3.205 6.146h.006c-.19.347-.225.774-.081 1.16l4.664 12.842c.098.26.265.485.484.652l8.295 6.285 1.701 4.514-1.545 2.424c-4.508 2.995-6.405 5.419-5.638 7.209l.444 1.044-3.464 7.59a1.453 1.453 0 00.138 1.443c1.326 1.858 2.848 4.069 3.384 4.957-.196.462-.6 1.264-.911 1.882-1.597 3.174-2.617 5.373-2.231 6.908zm47.454-37.192h1.516l2.283 3.429v2.141l-3.148 4.485 2 4.744-5.845-2.049v9.246l3.465 2.199h-7.777l-5.47-4.848-4.162-7.284 3.487-6.81h.006c1.637-.185 3.395-.312 4.127-.277.635.404 2.018.536 5.811.155a1.438 1.438 0 001.095-.704l2.612-4.427z" fill="#E6E6E6"/><path d="M214.843 205.669l1.505 11.231-6.509.86-6.214-2.649s-5.442 0-5.908-.312c-.467-.306-6.22 1.714-6.22 1.714s-4.041 3.111-4.664 3.579c-.617.467-7.77 2.025-9.171 1.558-1.395-.468-8.082-1.558-8.082-1.558l-1.199 1.927c-4.099-9.182-7.759-17.493-8.024-18.434-.087-.785 1.325-3.596 2.006-4.94 1.095-2.176 1.504-2.99 1.222-3.833-.185-.56-1.343-2.343-3.442-5.304l3.384-7.41c.167-.37.173-.797.012-1.172l-.594-1.391c.403-.785 2.554-2.643 4.727-4.069.167-.11.311-.26.421-.433l2.098-3.295a1.44 1.44 0 00.138-1.282l-2.098-5.575a1.485 1.485 0 00-.478-.646l-8.29-6.28-3.044-8.369.116.07c.23.156.507.236.784.236h5.758l3.984 5.991 6.508 10.943c.19.317.496.554.853.652l4.197 1.166c.467.133.962.017 1.325-.294 5.016-4.335 5.65-5.541 5.794-6.003.282-.513 1.649-2.141 3.251-3.953v12.23l-4.393 8.576 5.165 9.056 6.653 5.887h10.105l10.595 3.468-2.271 8.058z" fill="#336ABB"/><path d="M206.11 164.177h-1.92c-.513 0-.986.271-1.245.71l-2.652 4.502c-1.245.104-2.565.161-3.193.121-.525-.375-1.718-.52-5.229-.162v-14.7c0-.594-.363-1.125-.916-1.345a1.443 1.443 0 00-1.58.364c-5.43 5.87-6.197 7.249-6.364 7.728-.386.6-2.438 2.557-4.369 4.26l-2.894-.803-6.232-10.475s-.023-.04-.04-.064l-4.427-6.666a1.44 1.44 0 00-1.199-.64h-6.099l-2.277-1.489 1.787-3.434h6.393l5.603-4.485v-5.61l-.87-.375c-2.093-.906-4.497-2.032-5.84-2.765.352-1.275-.334-2.88-.674-3.561l-8.025-10.752-7.332 5.875-5.782-3.861h-6.37l.191-3.18-4.474-3.613v-2.459h1.891l8.14-2.562 5.741-9.223 2.381-10.955-8.359-4.542V58.702l-6.687-20.778V23.778l21.168-11.098 8.589 11.104c.271.352.692.56 1.136.56h9.28l7.154 8.45 3.955 12.64c.017.057.04.115.063.167l3.493 7.67-6.001 3.394a1.443 1.443 0 00-.513 2.014l7.148 11.52c.15.237.364.427.617.543l9.656 4.536 6.923 8.374V94.96c0 .26.069.508.196.721h-.006l7.742 13.5 3.626 16.795-2.9 18.746c-2.674 1.939-5.672 4.473-5.926 6.222-.161 1.16-1.585 8.599-2.478 13.234z" fill="#E6E6E6"/><path d="M216.399 107.939l-7.096-12.38 21.341-10.827c.063-.03.121-.07.178-.104l6.318-4.444 1.147 2.949 18.187 7.157v8.565l12.44-3.273h3.263s1.245 5.137 1.868 6.383c.616 1.247 0 5.293 0 5.293l3.528 8.634-15.155-3.486-20.441-7.209a1.438 1.438 0 00-1.182.099l-6.67 3.711h-15.247c-.795 0-1.441.646-1.441 1.443v1.979l-.882-4.074a1.48 1.48 0 00-.156-.416z" fill="#E6E6E6"/><path d="M223.628 205.432l-5.695 1.553-.15-1.103 2.859-10.152-6.035-1.974-9.91-6.285v-3.59l8.146 2.851-3.909-9.263 2.756-3.919v-3.93l-2.865-4.312c.49-2.534 2.363-12.276 2.611-13.903.3-.728 2.727-2.898 5.246-4.687.317-.225.53-.566.588-.952l3.02-19.543.012-.069c.012-.069.017-.144.017-.219v-14.042H234.5c.248 0 .484-.064.698-.185l6.433-3.573 19.905 7.018c.052.018.103.035.155.047l16.227 3.734c.364.086.75.023 1.073-.173l5.032-3.077 12.717.133 15.541-3.734s9.016 2.176 9.638 2.488c.26.127 2.271.744 4.531 1.419l-.87.716h-16.268c-.432 0-.836.196-1.112.525l-4.854 5.864-11.253 4.45-12.589 2.892-14.844-4.295a1.457 1.457 0 00-.565-.046l-13.685 1.564-12.532-3.128c-.029 0-.063-.011-.098-.017l-9.206-1.639a1.797 1.797 0 00-.254-.018h-7.926v2.886h7.8l7.897 1.397v3.671l-2.859 7.71-2.398 3.025-4.94 3.261a1.438 1.438 0 00-.635 1.004l-.466 3.376-6.457 2.603a1.444 1.444 0 00-.813 1.83l2.681 7.468c.023.075.058.145.092.208l4.318 7.82c.052.104.121.197.202.283l4.196 4.554c.173.185.386.323.629.398.034.012 3.383 1.051 4.404 1.391.668.225 6.358 2.655 10.324 4.369v3.019c0 .796.646 1.443 1.441 1.443h3.499c.242 0 .479-.064.692-.179l1.383-.762 1.378 1.379v9.558c0 .796.646 1.443 1.441 1.443h21.104c.138 0 .277-.023.404-.058l16.06-4.75 1.994 5.708c.162.456.536.802 1.003.924l5.482 1.396c.116.035.237.047.352.047h9.753v1.552h-9.401c-.398 0-.784.167-1.055.456-.271.294-.41.687-.381 1.091l.369 5.223-6.704 1.102-10.578-6.048a1.417 1.417 0 00-.853-.185l-12.78 1.276-7.356-.347c-.098-.005-.201 0-.299.018l-11.541 1.864c-.052.011-.11.023-.161.04l-7.46 2.101c-.155.041-.305.11-.438.208l-5.107 3.59h-7.459l-3.995-5.27a1.456 1.456 0 00-1.528-.519z" fill="#E6E6E6"/><path d="M299.974 183.662l-7.863 4.432-17.011 5.033h-19.456v-8.715c0-.381-.15-.75-.421-1.016l-2.565-2.568a1.441 1.441 0 00-1.712-.248l-2.012 1.108h-1.683v-2.528c0-.577-.34-1.097-.87-1.322-1.055-.456-10.348-4.473-11.426-4.831-.853-.288-3.176-1.01-4.087-1.298l-3.816-4.138-4.173-7.567-2.174-6.054 5.938-2.401c.478-.191.818-.624.888-1.137l.495-3.556 4.583-3.024c.133-.086.242-.19.34-.312l2.681-3.382a1.5 1.5 0 00.219-.398l3.032-8.167c.063-.161.092-.334.092-.502v-3.29l10.993 2.742c.167.04.34.052.513.035l13.656-1.565 14.931 4.318a1.5 1.5 0 00.72.023l13.057-2.996c.069-.017.138-.04.207-.069l11.697-4.629c.224-.086.426-.231.582-.421l4.658-5.627h16.111c.335 0 .658-.116.917-.329l2.767-2.286c1.948.566 3.487 1.016 3.487 1.016s21.139-.773 21.762-1.397c.622-.623 13.523.779 13.99.779.133 0 .974.075 2.104.191l3.793 28.379-3.701 2.533a1.444 1.444 0 00-.449 1.882l9.58 17.563-3.187 1.8-4.422-2.499a1.432 1.432 0 00-1.989.6l-2.398 4.681h-14.509c-.565 0-1.084.335-1.314.854l-1.643 3.677-3.021-1.962a1.41 1.41 0 00-.859-.231l-4.427.231c-.144 0-.288.034-.421.086l-6.49 2.378-2.871-2.176a1.438 1.438 0 00-1.903.15l-2.144 2.205H324c-.254 0-.501.069-.72.19l-4.664 2.69a1.44 1.44 0 00-.721 1.247v4.011c0 .381.15.75.421 1.021l1.038 1.033h-7.281l-10.854-4.328a1.446 1.446 0 00-1.245.081z" fill="#E6E6E6"/><path d="M416.279 264.544l-2.957 6.672-.773-.854-4.975-3.267s-4.046-7.001-4.046-7.624c0-.623-5.592-2.649-5.592-2.649l-7.621-6.534-5.13-8.559 3.113-6.227-11.506 3.111h-8.86l-8.394-4.514h-15.702l-1.706-4.236-5.598-2.765-5.597-1.402s-8.238 1.247-8.705 1.247c-.466 0-6.525-.468-6.525-.468l-9.171 3.388s-8.866-.9-9.327-.277c-.467.623-7.465 0-7.465 0h-3.263l-7.31-3.457-5.747-2.142s-11.506-.311-12.128-.779c-.623-.467-9.172-2.649-9.172-2.649l-8.393.623-5.442 2.65-3.418-1.715-9.171 1.091-2.024-4.046-4.375-1.95-.98-7.342 5.13-1.396 3.84 5.061a1.45 1.45 0 001.147.572h8.629c.294 0 .588-.093.83-.266l5.275-3.711 7.148-2.009 11.31-1.829 7.315.34c.069.006.138 0 .208 0l12.428-1.235 10.618 6.072c.283.167.617.225.946.173l8.514-1.402a1.441 1.441 0 001.199-1.53l-.352-4.986h9.293c.795 0 1.441-.647 1.441-1.443v-4.439c0-.796-.646-1.443-1.441-1.443h-11.011l-4.554-1.165-1.798-5.131 6.352-3.584 10.475 4.184c.172.063.351.098.536.098h11.039a1.436 1.436 0 001.014-2.459l-3.072-3.082v-2.574l3.608-2.077h4.975c.392 0 .767-.156 1.038-.439l1.677-1.732 2.479 1.882a1.45 1.45 0 001.366.202l7.021-2.574 3.747-.196 4.041 2.626c.352.231.784.294 1.194.173.403-.121.732-.41.905-.797l1.948-4.357h14.457c.542 0 1.038-.306 1.28-.785l2.116-4.133 3.822 2.165c.444.248.98.248 1.418 0l3.885-2.199 8.849 15.433c.04.075.092.15.149.213l7.927 9.339c.259.306.628.485 1.02.508a1.41 1.41 0 001.066-.393l3.909-3.682 1.493 3.238a1.44 1.44 0 002.19.537l6.14-4.756h4.484l-3.078 8.986c-.109.318-.104.664.017.981l3.148 8.271-8.901 2.147a1.44 1.44 0 00-1.101 1.402v7.175c-.259.294-.605.698-.91 1.148-1.436 2.072-.957 3.284-.3 3.942.334.335 1.06 1.466 1.781 2.672h-2.398a1.44 1.44 0 00-1.038.445 1.458 1.458 0 00-.403 1.056l.461 11.693-1.579 6.095a1.42 1.42 0 000 .715l1.4 5.599c.064.254.196.485.381.675l4.392 4.398 5.431 6.268-.006-.006z" fill="#E6E6E6"/></g><defs><filter id="filter0_d_1233_809" x=".155" y=".219" width="422.914" height="278.997" filterUnits="userSpaceOnUse" color-interpolation-filters="sRGB"><feFlood flood-opacity="0" result="BackgroundImageFix"/><feColorMatrix in="SourceAlpha" values="0 0 0 0 0 0 0 0 0 0 0 0 0 0 0 0 0 0 127 0" result="hardAlpha"/><feOffset dy="4"/><feGaussianBlur stdDeviation="2"/><feComposite in2="hardAlpha" operator="out"/><feColorMatrix values="0 0 0 0 0 0 0 0 0 0 0 0 0 0 0 0 0 0 0.25 0"/><feBlend in2="BackgroundImageFix" result="effect1_dropShadow_1233_809"/><feBlend in="SourceGraphic" in2="effect1_dropShadow_1233_809" result="shape"/></filter></defs></svg>

<svg width="424" height="280" viewBox="0 0 424 280" fill="none" xmlns="http://www.w3.org/2000/svg">
<g filter="url(#filter0_d_1233_809)">
<path d="M235.803 71.1513V76.7497L236.062 77.4134L229.248 82.2038L208.738 92.6099V83.133C208.738 82.7983 208.623 82.4693 208.41 82.2154L200.945 73.1887C200.812 73.0213 200.639 72.8886 200.449 72.802L190.885 68.3117L188.43 64.3524L198.472 61.0742H218.878C219.132 61.0742 219.385 61.0049 219.61 60.878L224.504 57.9922L226.32 60.878H239.065C239.065 60.878 238.754 64.4563 238.443 65.703C238.132 66.9496 235.803 71.1513 235.803 71.1513Z" fill="#E6E6E6"/>
<path d="M157.555 204.254C157.843 205.409 162.443 215.809 166.548 224.98L166.006 225.852C166.006 225.852 156.056 226.475 154.194 225.852C152.327 225.228 149.064 225.852 149.064 225.852L147.04 220.247C147.04 220.247 140.204 219.162 139.426 218.383C138.647 217.604 128.542 218.383 128.542 218.383H119.215C119.215 218.383 109.577 216.981 109.11 216.825C108.643 216.669 101.495 214.182 101.495 214.182L96.6758 212.467H87.66L92.7905 207.019L92.6348 202.973L72.1131 193.479C72.1131 193.479 70.0955 187.407 69.9399 186.946C69.7842 186.478 67.4496 180.718 67.4496 180.718L65.8989 168.886L69.3173 162.665L74.6034 155.814L76.154 150.521L68.0722 150.833L57.0389 146.164L48.3344 144.611L44.4434 135.429L57.6557 122.506L68.2278 115.973V103.524L70.8737 94.9587C70.8737 94.9587 71.6462 81.107 71.4905 80.4894C71.3407 79.8661 66.5215 73.9503 65.2764 72.2361C64.0312 70.5277 57.6557 66.4819 57.6557 66.4819L46.778 58.0727C46.778 58.0727 34.8051 55.5852 34.3439 55.4294C33.877 55.2735 26.8788 51.6952 26.8788 51.6952L7.9135 35.506L11.9544 26.1676L9.93685 13.7184L4.15503 8.00456L57.6557 11.733C57.9727 11.7561 58.2782 11.6753 58.5376 11.5021L75.9062 0.21875H88.444L92.1506 10.7749C92.3293 11.2944 92.7905 11.6637 93.3381 11.7272L119.054 14.7919L130.306 23.6051V38.3802L136.993 59.1578V81.7361L144.954 86.0647L143.144 94.4104L138.232 102.306L131.528 104.413H127.199V111.136L131.586 114.686L131.309 119.436H139.864L146.672 123.984L153.33 118.651L159.348 126.685C159.503 127.02 159.653 127.452 159.728 127.77C159.325 128.012 159.06 128.416 159.002 128.89C158.875 129.923 158.794 130.558 166.375 133.882V136.214L162.645 139.198H155.514L152.309 145.344H152.315C152.125 145.691 152.09 146.118 152.234 146.504L156.898 159.346C156.996 159.606 157.163 159.831 157.382 159.998L165.677 166.283L167.378 170.797L165.833 173.221C161.325 176.216 159.428 178.64 160.195 180.43L160.639 181.474L157.175 189.064C156.961 189.537 157.013 190.085 157.313 190.507C158.639 192.365 160.161 194.576 160.697 195.464C160.501 195.926 160.097 196.728 159.786 197.346C158.189 200.52 157.169 202.719 157.555 204.254Z" fill="#E6E6E6"/>
<path d="M205.009 167.062H206.525L208.808 170.491V172.632L205.66 177.117L207.66 181.861L201.815 179.812V189.058L205.28 191.257H197.503L192.033 186.409L187.871 179.125L191.358 172.315H191.364C193.001 172.13 194.759 172.003 195.491 172.038C196.126 172.442 197.509 172.574 201.302 172.193C201.757 172.147 202.161 171.888 202.397 171.489L205.009 167.062Z" fill="#E6E6E6"/>
<path d="M214.843 205.669L216.348 216.9L209.839 217.76L203.625 215.111C203.625 215.111 198.183 215.111 197.717 214.799C197.25 214.493 191.497 216.513 191.497 216.513C191.497 216.513 187.456 219.624 186.833 220.092C186.216 220.559 179.063 222.117 177.662 221.65C176.267 221.182 169.58 220.092 169.58 220.092L168.381 222.019C164.282 212.837 160.622 204.526 160.357 203.585C160.27 202.8 161.682 199.989 162.363 198.645C163.458 196.469 163.867 195.655 163.585 194.812C163.4 194.252 162.242 192.469 160.143 189.508L163.527 182.098C163.694 181.728 163.7 181.301 163.539 180.926L162.945 179.535C163.348 178.75 165.499 176.892 167.672 175.466C167.839 175.356 167.983 175.206 168.093 175.033L170.191 171.738C170.439 171.357 170.485 170.883 170.329 170.456L168.231 164.881C168.133 164.621 167.966 164.402 167.753 164.235L159.463 157.955L156.419 149.586L156.535 149.656C156.765 149.812 157.042 149.892 157.319 149.892H163.077L167.061 155.883L173.569 166.826C173.759 167.143 174.065 167.38 174.422 167.478L178.619 168.644C179.086 168.777 179.581 168.661 179.944 168.35C184.96 164.015 185.594 162.809 185.738 162.347C186.02 161.834 187.387 160.206 188.989 158.394V170.624L184.596 179.2L189.761 188.256L196.414 194.143H206.519L217.114 197.611L214.843 205.669Z" fill="#336ABB"/>
<path d="M206.11 164.177H204.19C203.677 164.177 203.204 164.448 202.945 164.887L200.293 169.389C199.048 169.493 197.728 169.55 197.1 169.51C196.575 169.135 195.382 168.99 191.871 169.348V154.648C191.871 154.054 191.508 153.523 190.955 153.303C190.401 153.09 189.773 153.234 189.375 153.667C183.945 159.537 183.178 160.916 183.011 161.395C182.625 161.995 180.573 163.952 178.642 165.655L175.748 164.852L169.516 154.377C169.516 154.377 169.493 154.337 169.476 154.313L165.049 147.647C164.784 147.249 164.334 147.007 163.85 147.007H157.751L155.474 145.518L157.261 142.084H163.654L169.257 137.599V131.989L168.387 131.614C166.294 130.708 163.89 129.582 162.547 128.849C162.899 127.574 162.213 125.969 161.873 125.288L153.848 114.536L146.516 120.411L140.734 116.55H134.364L134.555 113.37L130.081 109.757V107.298H131.972L140.112 104.736L145.853 95.5129L148.234 84.5585L139.875 80.0163V58.702L133.188 37.9244V23.7784L154.356 12.6797L162.945 23.7841C163.216 24.1362 163.637 24.344 164.081 24.344H173.361L180.515 32.7935L184.47 45.4332C184.487 45.4909 184.51 45.5487 184.533 45.6006L188.026 53.271L182.025 56.6646C181.685 56.8551 181.438 57.1841 181.34 57.565C181.242 57.9459 181.305 58.3499 181.512 58.6789L188.66 70.1989C188.81 70.4356 189.024 70.626 189.277 70.7415L198.933 75.2779L205.856 83.6524V94.9589C205.856 95.2186 205.925 95.4668 206.052 95.6803H206.046L213.788 109.18L217.414 125.975L214.514 144.721C211.84 146.66 208.842 149.194 208.588 150.943C208.427 152.103 207.003 159.542 206.11 164.177Z" fill="#E6E6E6"/>
<path d="M216.399 107.939L209.303 95.559L230.644 84.7316C230.707 84.7027 230.765 84.6623 230.822 84.6277L237.14 80.1836L238.287 83.1329L256.474 90.2896V98.8546L268.914 95.5821H272.177C272.177 95.5821 273.422 100.719 274.045 101.965C274.661 103.212 274.045 107.258 274.045 107.258L277.573 115.892L262.418 112.406L241.977 105.197C241.585 105.059 241.158 105.094 240.795 105.296L234.125 109.007H218.878C218.083 109.007 217.437 109.653 217.437 110.45V112.429L216.555 108.355C216.526 108.21 216.469 108.066 216.399 107.939Z" fill="#E6E6E6"/>
<path d="M223.628 205.432L217.933 206.985L217.783 205.882L220.642 195.73L214.607 193.756L204.697 187.471V183.881L212.843 186.732L208.934 177.469L211.69 173.55V169.62L208.825 165.308C209.315 162.774 211.188 153.032 211.436 151.405C211.736 150.677 214.163 148.507 216.682 146.718C216.999 146.493 217.212 146.152 217.27 145.766L220.29 126.223L220.302 126.154C220.314 126.085 220.319 126.01 220.319 125.935V111.893H234.5C234.748 111.893 234.984 111.829 235.198 111.708L241.631 108.135L261.536 115.153C261.588 115.171 261.639 115.188 261.691 115.2L277.918 118.934C278.282 119.02 278.668 118.957 278.991 118.761L284.023 115.684L296.74 115.817L312.281 112.083C312.281 112.083 321.297 114.259 321.919 114.571C322.179 114.698 324.19 115.315 326.45 115.99L325.58 116.706H309.312C308.88 116.706 308.476 116.902 308.2 117.231L303.346 123.095L292.093 127.545L279.504 130.437L264.66 126.142C264.476 126.091 264.285 126.073 264.095 126.096L250.41 127.66L237.878 124.532C237.849 124.532 237.815 124.521 237.78 124.515L228.574 122.876C228.488 122.864 228.407 122.858 228.32 122.858H220.394V125.744H228.194L236.091 127.141V130.812L233.232 138.522L230.834 141.547L225.894 144.808C225.548 145.033 225.317 145.402 225.259 145.812L224.793 149.188L218.336 151.791C217.621 152.08 217.258 152.888 217.523 153.621L220.204 161.089C220.227 161.164 220.262 161.234 220.296 161.297L224.614 169.117C224.666 169.221 224.735 169.314 224.816 169.4L229.012 173.954C229.185 174.139 229.398 174.277 229.641 174.352C229.675 174.364 233.024 175.403 234.045 175.743C234.713 175.968 240.403 178.398 244.369 180.112V183.131C244.369 183.927 245.015 184.574 245.81 184.574H249.309C249.551 184.574 249.788 184.51 250.001 184.395L251.384 183.633L252.762 185.012V194.57C252.762 195.366 253.408 196.013 254.203 196.013H275.307C275.445 196.013 275.584 195.99 275.711 195.955L291.771 191.205L293.765 196.913C293.927 197.369 294.301 197.715 294.768 197.837L300.25 199.233C300.366 199.268 300.487 199.28 300.602 199.28H310.355V200.832H300.954C300.556 200.832 300.17 200.999 299.899 201.288C299.628 201.582 299.489 201.975 299.518 202.379L299.887 207.602L293.183 208.704L282.605 202.656C282.346 202.506 282.052 202.442 281.752 202.471L268.972 203.747L261.616 203.4C261.518 203.395 261.415 203.4 261.317 203.418L249.776 205.282C249.724 205.293 249.666 205.305 249.615 205.322L242.155 207.423C242 207.464 241.85 207.533 241.717 207.631L236.61 211.221H229.151L225.156 205.951C224.798 205.484 224.193 205.282 223.628 205.432Z" fill="#E6E6E6"/>
<path d="M299.974 183.662L292.111 188.094L275.1 193.127H255.644V184.412C255.644 184.031 255.494 183.662 255.223 183.396L252.658 180.828C252.203 180.372 251.505 180.274 250.946 180.58L248.934 181.688H247.251V179.16C247.251 178.583 246.911 178.063 246.381 177.838C245.326 177.382 236.033 173.365 234.955 173.007C234.102 172.719 231.779 171.997 230.868 171.709L227.052 167.571L222.879 160.004L220.705 153.95L226.643 151.549C227.121 151.358 227.461 150.925 227.531 150.412L228.026 146.856L232.609 143.832C232.742 143.746 232.851 143.642 232.949 143.52L235.63 140.138C235.722 140.017 235.797 139.884 235.849 139.74L238.881 131.573C238.944 131.412 238.973 131.239 238.973 131.071V127.781L249.966 130.523C250.133 130.563 250.306 130.575 250.479 130.558L264.135 128.993L279.066 133.311C279.192 133.351 279.331 133.368 279.463 133.368C279.573 133.368 279.682 133.357 279.786 133.334L292.843 130.338C292.912 130.321 292.981 130.298 293.05 130.269L304.747 125.64C304.971 125.554 305.173 125.409 305.329 125.219L309.987 119.592H326.098C326.433 119.592 326.756 119.476 327.015 119.263L329.782 116.977C331.73 117.543 333.269 117.993 333.269 117.993C333.269 117.993 354.408 117.22 355.031 116.596C355.653 115.973 368.554 117.375 369.021 117.375C369.154 117.375 369.995 117.45 371.125 117.566L374.918 145.945L371.217 148.478C370.606 148.894 370.416 149.708 370.768 150.36L380.348 167.923L377.161 169.723L372.739 167.224C372.399 167.028 371.996 166.988 371.621 167.097C371.24 167.213 370.929 167.472 370.75 167.824L368.352 172.505H353.843C353.278 172.505 352.759 172.84 352.529 173.359L350.886 177.036L347.865 175.074C347.612 174.906 347.306 174.825 347.006 174.843L342.579 175.074C342.435 175.074 342.291 175.108 342.158 175.16L335.668 177.538L332.797 175.362C332.215 174.923 331.402 174.987 330.894 175.512L328.75 177.717H324C323.746 177.717 323.499 177.786 323.28 177.907L318.616 180.597C318.172 180.851 317.895 181.33 317.895 181.844V185.855C317.895 186.236 318.045 186.605 318.316 186.876L319.354 187.909H312.073L301.219 183.581C300.809 183.419 300.354 183.448 299.974 183.662Z" fill="#E6E6E6"/>
<path d="M416.279 264.544L413.322 271.216L412.549 270.362L407.574 267.095C407.574 267.095 403.528 260.094 403.528 259.471C403.528 258.848 397.936 256.822 397.936 256.822L390.315 250.288L385.185 241.729L388.298 235.502L376.792 238.613H367.932L359.538 234.099H343.836L342.13 229.863L336.532 227.098L330.935 225.696C330.935 225.696 322.697 226.943 322.23 226.943C321.764 226.943 315.705 226.475 315.705 226.475L306.534 229.863C306.534 229.863 297.668 228.963 297.207 229.586C296.74 230.209 289.742 229.586 289.742 229.586H286.479L279.169 226.129L273.422 223.987C273.422 223.987 261.916 223.676 261.294 223.208C260.671 222.741 252.122 220.559 252.122 220.559L243.729 221.182L238.287 223.832L234.869 222.117L225.698 223.208L223.674 219.162L219.299 217.212L218.319 209.87L223.449 208.474L227.289 213.535C227.565 213.893 227.986 214.107 228.436 214.107H237.065C237.359 214.107 237.653 214.014 237.895 213.841L243.17 210.13L250.318 208.121L261.628 206.292L268.943 206.632C269.012 206.638 269.081 206.632 269.151 206.632L281.579 205.397L292.197 211.469C292.48 211.636 292.814 211.694 293.143 211.642L301.657 210.24C302.389 210.118 302.913 209.455 302.856 208.71L302.504 203.724H311.797C312.592 203.724 313.238 203.077 313.238 202.281V197.842C313.238 197.046 312.592 196.399 311.797 196.399H300.786L296.232 195.234L294.434 190.103L300.786 186.519L311.261 190.703C311.433 190.766 311.612 190.801 311.797 190.801H322.836C323.418 190.801 323.942 190.455 324.167 189.912C324.386 189.375 324.265 188.752 323.85 188.342L320.778 185.26V182.686L324.386 180.609H329.361C329.753 180.609 330.128 180.453 330.399 180.17L332.076 178.438L334.555 180.32C334.947 180.614 335.46 180.689 335.921 180.522L342.942 177.948L346.689 177.752L350.73 180.378C351.082 180.609 351.514 180.672 351.924 180.551C352.327 180.43 352.656 180.141 352.829 179.754L354.777 175.397H369.234C369.776 175.397 370.272 175.091 370.514 174.612L372.63 170.479L376.452 172.644C376.896 172.892 377.432 172.892 377.87 172.644L381.755 170.445L390.604 185.878C390.644 185.953 390.696 186.028 390.753 186.091L398.68 195.43C398.939 195.736 399.308 195.915 399.7 195.938C400.103 195.961 400.484 195.817 400.766 195.545L404.675 191.863L406.168 195.101C406.352 195.499 406.704 195.793 407.13 195.897C407.557 196.001 408.012 195.909 408.358 195.638L414.498 190.882H418.982L415.904 199.868C415.795 200.186 415.8 200.532 415.921 200.849L419.069 209.12L410.168 211.267C409.523 211.423 409.067 212 409.067 212.669V219.844C408.808 220.138 408.462 220.542 408.157 220.992C406.721 223.064 407.2 224.276 407.857 224.934C408.191 225.269 408.917 226.4 409.638 227.606H407.24C406.848 227.606 406.473 227.768 406.202 228.051C405.931 228.333 405.787 228.714 405.799 229.107L406.26 240.8L404.681 246.895C404.623 247.131 404.617 247.374 404.681 247.61L406.081 253.209C406.145 253.463 406.277 253.694 406.462 253.884L410.854 258.282L416.285 264.55L416.279 264.544Z" fill="#E6E6E6"/>
</g>
<defs>
<filter id="filter0_d_1233_809" x="0.155029" y="0.21875" width="422.914" height="278.997" filterUnits="userSpaceOnUse" color-interpolation-filters="sRGB">
<feFlood flood-opacity="0" result="BackgroundImageFix"/>
<feColorMatrix in="SourceAlpha" type="matrix" values="0 0 0 0 0 0 0 0 0 0 0 0 0 0 0 0 0 0 127 0" result="hardAlpha"/>
<feOffset dy="4"/>
<feGaussianBlur stdDeviation="2"/>
<feComposite in2="hardAlpha" operator="out"/>
<feColorMatrix type="matrix" values="0 0 0 0 0 0 0 0 0 0 0 0 0 0 0 0 0 0 0.25 0"/>
<feBlend mode="normal" in2="BackgroundImageFix" result="effect1_dropShadow_1233_809"/>
<feBlend mode="normal" in="SourceGraphic" in2="effect1_dropShadow_1233_809" result="shape"/>
</filter>
</defs>
</svg>
